X: 35429
T: Rover Reformed, The
R: jig
M: 6/8
K: Fmajor
A|:d2d Adc|d3 e3|fed fed|^ccc A2G|
FAG EGF|DFE ^C2 C|FED ^G2G|1 A3 A2 A:|2 A3 A2G||
FGA BAG|c3 c2e|dcB AGF|E3 E2c|
dDD cDD|BDD ADD|GBA GFE|F3 F3|
ABc cBA|_B3 =B3|=B=cd d^cB|^c3 c2c|
dDD cDD|BDD ADD|GBA E2D|D3 D3||

